X:84
T: A csap utcán
Q: "Parlando rubato"
L:1/8
M:4/4
K:Bb
cBdc fdBA | G4 G2 z2 |
gfag gffe | d4 d2 z2 |
gfag gffe | d2 g4 z2 |
cBdc fdBA | G4 G2 z2 |

